X:1
T: Rosamond's Pond
N:
C:Bray (1699)
S:
A:
O:
R:
M:4/4
K:Em
I:speed 200
%W: A1
% voice 1 (1 lines, 33 notes)
K:Em
M:4/4
L:1/16
f4 |g4 a2 g2 f4 g2 f2 |e4 f4 ^d4 b4 |f4 a4 g4 f4 |g4 f4 e4 f4 |g4 d4 g4 c4 |g4 B4 A4 a4 |d4 g4 a4 f4 |g12 f4 |
%W: A2
% voice 1 (1 lines, 32 notes)
g4 a2 g2 f4 g2 f2 |e4 f4 ^d4 b4 |f4 a4 g4 f4 |g4 f4 e4 f4 |g4 d4 g4 c4 |g4 B4 A4 a4 |d4 g4 a4 f4 |g12 B4 |
%W: B1
% voice 1 (1 lines, 40 notes)
B4 B2 c2 d4 g4 |d4 B4 d4 g4 |d4 c2 B2 c4 B2 A2 |G4 F4 G4 a4 |b8 a4 b2 a2 |g4 a2 g2 f4 g2 f g |a4 g2 f2 ^d4 b2 f2 |g4 f4 e4 B4 |
%W: B2
% voice 1 (1 lines, 39 notes)
B4 B2 c2 d4 g4 |d4 B4 d4 g4 |d4 c2 B2 c4 B2 A2 |G4 F4 G4 a4 |b8 a4 b2 a2 |g4 a2 g2 f4 g2 f g |a4 g2 f2 ^d4 b2 f2 |g4 f4 e4 ||
